X: 26830
T: Milltown Lasses, The
R: reel
M: 4/4
K: Ddorian
EDDF ECCD|EDDF EGcG|EDDF ECCD|EGAB cBAG:|
Addc d3c|Adde fdec|Addc d2dc|AGAB cGEG|
Addc d3c|Adde fdeg|fdeg fdec|AcBd cAGF||

